X:1
T:Title
%%score { 1 | ( 2 3 ) }
L:1/8
M:6/8
K:C
V:1 treble nm="Grand Piano"
V:2 bass 
V:3 bass 
V:1
 z3 z2[Q:1/4=72] [EG] | [EG][CE][EG] [FA][EG][Ec] | Bcd [Ec]2 [Ec] | cAc [Ec][EG][Ec] | %4
 [^Fc][FB][Fc] [=Fd]2 [FG] | [EG][CE][EG] [FA][EG][Ec] | Bcd c2 [Gc] | dcA [EG][CE][EG] | %8
[M:5/8] Bc[Fd] [Ec]2 |[M:1/8] [Ec] |[M:3/4] d>d dd AB | [Ec][FB] .[A,FA] [CEG]2 [CEG] | %12
 [CFA]>[CGB] [CAc][^Fc] [FB][Fc] |[M:5/8] [Fd]-[Fd]- [Fd]3 |[M:1/8] [FG] | %15
[M:3/4] [EG][_E^F] [=EG][Ge] [Gd][Gc] | [Ac]2 [^GB]d cA | GE cB cd |[M:5/8] [Ec]-[Ec]- [Ec]3 |] %19
V:2
 z3 z2 [C,C] | [C,C][C,G,][C,C] [F,C][C,C][C,G,] | [G,D][G,E][G,F][K:bass] [C,G,]2 [C,G,] | %3
 [F,A,F][F,CF][F,A,F] [C,G,][C,C][C,G,] | [D,D][D,D][D,A,] [G,B,]2 [G,B,] | %5
 [C,C][C,G,][C,C] [F,C][C,C][C,G,] | [G,D][G,E][G,F][K:bass] [A,CE]2 [E,_B,] | %7
 [F,A,F][F,A,F][F,CF] [C,C][C,G,][C,C] |[M:5/8] [G,D][G,E][G,,G,] [C,G,]2 |[M:1/8] [C,G,] | %10
[M:3/4][K:treble] [G,B,F]>[G,B,F] [G,B,F][G,B,F] [G,CF][G,DF] | [C,C][C,G,] z/ B,/ C,2 C, | %12
 F,>F, F,[D,D] [D,D][D,A,] |[M:5/8] [G,B,]-[G,B,]- [G,B,]3 |[M:1/8] [G,B,] | %15
[M:3/4] [C,C][C,C] [C,C][C,C] [D,B,][E,C] | [F,C]2 [F,D][K:treble][F,A,F] [F,A,F][F,CF] | %17
 [G,CE][G,C] [G,E][G,D] [G,E][G,B,F] |[M:5/8][K:bass] [C,C]-[C,C]- [C,C]3 |] %19
V:3
 x6 | x6 | x3[K:bass] x3 | x6 | x6 | x6 | x3[K:bass] x3 | x6 |[M:5/8] x5 |[M:1/8] x | %10
[M:3/4][K:treble] x6 | z2 .C,2 z2 | x6 |[M:5/8] x5 |[M:1/8] x |[M:3/4] x6 | x3[K:treble] x3 | x6 | %18
[M:5/8][K:bass] x5 |] %19

